X:27
T:Fly Not Yet. ST.27
M:6/8
L:1/8
Q:3/8=110
S:Anonymous Staffordshire MS, Early 19thC.
R:.Quadrille
O:England
A:Staffordshire
Z:vmp.Tim Willets
K:F
F2FF2G|A2Bc2A|c2de2f|g2f edc|a2gg2f|!
f2ed2c|d2ef2d|c2BA2G|F2f fge|(f3″^cr”f3):|!
|:(F3f3)|(F3f3)|a2gg2f|f2ed2c|!
d2e fed|cdB A2G|F2f fge|(f3f3):|

